Yaru++/actions/16/path-clip-edit.svg

<svg viewBox="0 0 24 24" xmlns="http://www.w3.org/2000/svg">
  <path d="m4 5v14h16v-14zm7.941406 1.078125a6 6 0 0 1 6.058594 5.921875v.078125a6 6 0 0 1 -5.980469 6 6 6 0 0 1 -6.019531-5.960937 6 6 0 0 1 5.941406-6.039063z" fill="#808080"/>
</svg>

<svg xmlns="http://www.w3.org/2000/svg" viewBox="0 0 24 24">
 <defs>
  <style id="current-color-scheme" type="text/css">
   .ColorScheme-Text { color:#808080; }
  </style>
 </defs>
 <path fill="#808080" class="ColorScheme-Text" d="M 4 5 L 4 19 L 20 19 L 20 5 L 4 5 z M 11.941406 6.078125 A 6 6 0 0 1 18 12 L 18 12.078125 A 6 6 0 0 1 12.019531 18.078125 A 6 6 0 0 1 6 12.117188 A 6 6 0 0 1 11.941406 6.078125 z"/>
</svg>
